X:885
M:C
L:1/8
K:E Minor
(3gag (3fe^d e2 e:|
f|e<B e>f g>eB>e|g<b a>g f<d d>f|e<B e>f g>eB>f|(3gag (3fe^d e2 e>B|
e<B e>f g>eB>e|g<b a>g f<d d>f|g<ef>d e>Bd>A|B/A/G/F/ d>F E2 E||

